static/assets/images/networks/mantle.svg

<svg width="256" height="256" viewBox="0 0 256 256" fill="none" xmlns="http://www.w3.org/2000/svg">
<path d="M128 256C198.692 256 256 198.692 256 128C256 57.3075 198.692 0 128 0C57.3075 0 0 57.3075 0 128C0 198.692 57.3075 256 128 256Z" fill="black"/>
<path d="M72.8714 100.014L44.4566 85.546C42.234 89.9128 40.3411 94.4914 38.8349 99.1547L69.1757 108.966C70.1672 105.898 71.4078 102.886 72.8714 100.014Z" fill="white"/>
<path d="M97.0083 74.5158L112.747 101.634C115.045 100.301 117.505 99.2758 120.065 98.5878L111.919 68.308C113.992 67.7506 116.099 67.2904 118.217 66.9559L113.212 35.4614C108.37 36.23 103.56 37.39 98.9107 38.9057L108.643 68.735C105.548 69.7455 102.533 71.0004 99.6295 72.4853L85.3237 44.5608C80.9734 46.7906 76.7654 49.3809 72.8111 52.2678L91.6094 78.0244C93.341 76.7622 95.1531 75.5952 97.0083 74.5158Z" fill="white"/>
<path d="M181.464 96.9839L154.356 112.737C155.692 115.033 156.716 117.495 157.407 120.051L187.683 111.89C188.241 113.963 188.701 116.068 189.038 118.183L220.527 113.169C219.756 108.33 218.594 103.517 217.073 98.8653L187.249 108.617C186.237 105.521 184.982 102.509 183.494 99.6052L211.409 85.2802C209.179 80.9345 206.584 76.7263 203.697 72.7743L177.949 91.5854C179.213 93.317 180.385 95.1266 181.464 96.9839Z" fill="white"/>
<path d="M170.41 44.4332C166.038 42.2129 161.46 40.3223 156.801 38.8184L147.007 69.1648C150.072 70.154 153.084 71.397 155.962 72.8582L170.41 44.4332Z" fill="white"/>
<path d="M159.088 73.9602L143.169 101.588C145.475 102.917 147.6 104.544 149.49 106.427L194.137 61.6275C190.674 58.1761 186.912 54.9714 182.955 52.1011L164.541 77.497C162.786 76.2255 160.966 75.0442 159.088 73.9602Z" fill="white"/>
<path d="M73.9786 96.8839L101.599 112.82C102.927 110.517 104.559 108.389 106.445 106.496L61.6654 61.8315C58.2117 65.2948 55.0047 69.0545 52.1345 73.0088L77.5201 91.4356C76.2487 93.1882 75.0627 95.0055 73.9786 96.8839Z" fill="white"/>
<path d="M137.665 66.42L142.483 35.4189C137.722 34.6788 132.85 34.304 127.999 34.304H127.926V97.5539H127.999C130.666 97.5539 133.303 97.8956 135.842 98.5693L144.02 67.7484C141.928 67.1933 139.808 66.7545 137.665 66.42Z" fill="white"/>
<path d="M98.57 120.141L67.7546 111.941C67.1972 114.033 66.756 116.154 66.4215 118.296L35.426 113.464C34.6812 118.241 34.304 123.133 34.304 127.998H97.5521C97.5521 125.327 97.8943 122.682 98.57 120.141Z" fill="white"/>
<path d="M183.128 155.992L211.543 170.459C213.766 166.092 215.658 161.514 217.165 156.851L186.824 147.039C185.832 150.106 184.592 153.119 183.128 155.992Z" fill="white"/>
<path d="M158.99 181.483L143.252 154.365C140.953 155.698 138.494 156.722 135.934 157.41L144.08 187.69C142.004 188.248 139.9 188.708 137.782 189.043L142.784 220.534C147.626 219.766 152.436 218.606 157.086 217.09L147.353 187.261C150.451 186.251 153.464 184.996 156.367 183.511L170.672 211.435C175.023 209.205 179.231 206.615 183.185 203.728L164.387 177.972C162.655 179.234 160.845 180.403 158.99 181.483Z" fill="white"/>
<path d="M74.5371 159.022L101.647 143.27C100.312 140.973 99.2868 138.511 98.5967 135.956L68.3199 144.116C67.7625 142.043 67.3023 139.939 66.9655 137.823L35.4742 142.838C36.2451 147.677 37.4074 152.49 38.9279 157.141L68.7517 147.389C69.7645 150.485 71.0193 153.498 72.5066 156.402L44.5924 170.727C46.8221 175.072 49.4171 179.28 52.3039 183.232L78.0525 164.421C76.7881 162.69 75.6163 160.88 74.5371 159.022Z" fill="white"/>
<path d="M85.59 211.57C89.9615 213.79 94.5395 215.68 99.1985 217.185L108.993 186.838C105.928 185.849 102.916 184.606 100.038 183.144L85.59 211.57Z" fill="white"/>
<path d="M96.9118 182.046L112.831 154.419C110.525 153.09 108.4 151.463 106.509 149.58L61.8627 194.379C65.3258 197.831 69.0879 201.035 73.0445 203.906L91.4585 178.51C93.2142 179.781 95.033 180.962 96.9118 182.046Z" fill="white"/>
<path d="M182.02 159.122L154.4 143.186C153.072 145.49 151.44 147.617 149.554 149.51L194.331 194.177C197.785 190.714 200.992 186.954 203.862 183L178.476 164.573C179.748 162.82 180.936 161.001 182.02 159.122Z" fill="white"/>
<path d="M120.158 157.431L111.979 188.252C114.072 188.807 116.192 189.246 118.334 189.58L113.519 220.581C118.28 221.321 123.152 221.696 128.003 221.696H128.076V158.446H128.003C125.336 158.446 122.696 158.104 120.158 157.431Z" fill="white"/>
<path d="M158.448 128.005C158.448 130.676 158.104 133.318 157.428 135.861L188.243 144.061C188.801 141.969 189.242 139.848 189.576 137.706L220.574 142.541C221.319 137.763 221.696 132.872 221.696 128.007L158.448 128.005Z" fill="white"/>
</svg>

<svg xmlns="http://www.w3.org/2000/svg" fill="none" viewBox="0 0 256 256"><path fill="#000" d="M128 256c70.692 0 128-57.308 128-128S198.692 0 128 0 0 57.308 0 128s57.308 128 128 128"/><path fill="#fff" d="M72.871 100.014 44.457 85.546a93.4 93.4 0 0 0-5.622 13.609l30.34 9.811a61 61 0 0 1 3.696-8.952m24.137-25.498 15.739 27.118a30.2 30.2 0 0 1 7.318-3.046l-8.146-30.28a61 61 0 0 1 6.298-1.352l-5.005-31.495a93.6 93.6 0 0 0-14.301 3.445l9.732 29.829a62 62 0 0 0-9.014 3.75L85.325 44.561a94 94 0 0 0-12.513 7.707L91.61 78.024a63 63 0 0 1 5.4-3.508m84.454 22.468-27.108 15.753a30.2 30.2 0 0 1 3.051 7.314l30.276-8.161a62 62 0 0 1 1.355 6.293l31.489-5.014a93.5 93.5 0 0 0-3.454-14.304l-29.824 9.752a62 62 0 0 0-3.755-9.012l27.915-14.325a94 94 0 0 0-7.712-12.506l-25.748 18.811a62 62 0 0 1 3.515 5.399M170.41 44.433a94 94 0 0 0-13.609-5.615l-9.794 30.347a62 62 0 0 1 8.955 3.693zM159.088 73.96l-15.919 27.628a30.6 30.6 0 0 1 6.321 4.839l44.647-44.8a94.5 94.5 0 0 0-11.182-9.526l-18.414 25.396a63 63 0 0 0-5.453-3.537M73.979 96.884l27.62 15.936a30.7 30.7 0 0 1 4.846-6.324l-44.78-44.664a94.5 94.5 0 0 0-9.53 11.177L77.52 91.436a62 62 0 0 0-3.541 5.448m63.686-30.464 4.818-31.001a94.6 94.6 0 0 0-14.484-1.115h-.073v63.25h.073c2.667 0 5.304.342 7.843 1.015l8.178-30.82a62 62 0 0 0-6.355-1.329M98.57 120.141l-30.815-8.2a62 62 0 0 0-1.334 6.355l-30.995-4.832a95 95 0 0 0-1.122 14.534h63.248c0-2.671.342-5.316 1.018-7.857m84.558 35.851 28.415 14.467a93.4 93.4 0 0 0 5.622-13.608l-30.341-9.812a61.4 61.4 0 0 1-3.696 8.953m-24.138 25.491-15.738-27.118a30.2 30.2 0 0 1-7.318 3.045l8.146 30.28a61 61 0 0 1-6.298 1.353l5.002 31.491a93.6 93.6 0 0 0 14.302-3.444l-9.733-29.829a62 62 0 0 0 9.014-3.75l14.305 27.924a94 94 0 0 0 12.513-7.707l-18.798-25.756a63 63 0 0 1-5.397 3.511m-84.453-22.461 27.11-15.752a30.3 30.3 0 0 1-3.05-7.314l-30.277 8.16a62 62 0 0 1-1.354-6.293l-31.492 5.015a93.5 93.5 0 0 0 3.454 14.303l29.824-9.752a62 62 0 0 0 3.755 9.013l-27.915 14.325a94 94 0 0 0 7.712 12.505l25.748-18.811a62 62 0 0 1-3.515-5.399M85.59 211.57a94 94 0 0 0 13.608 5.615l9.795-30.347a61.6 61.6 0 0 1-8.955-3.694zm11.322-29.524 15.919-27.627a30.7 30.7 0 0 1-6.322-4.839l-44.646 44.799a94.5 94.5 0 0 0 11.182 9.527l18.414-25.396a63 63 0 0 0 5.453 3.536m85.108-22.924-27.62-15.936a30.7 30.7 0 0 1-4.846 6.324l44.777 44.667A94.4 94.4 0 0 0 203.862 183l-25.386-18.427a62 62 0 0 0 3.544-5.451m-61.862-1.691-8.179 30.821c2.093.555 4.213.994 6.355 1.328l-4.815 31.001a94.6 94.6 0 0 0 14.484 1.115h.073v-63.25h-.073c-2.667 0-5.307-.342-7.845-1.015m38.29-29.426c0 2.671-.344 5.313-1.02 7.856l30.815 8.2a61 61 0 0 0 1.333-6.355l30.998 4.835a95 95 0 0 0 1.122-14.534z"/></svg>
